packages/core/src/svgs/tokens/branded/VCF.svg

<svg width="24" height="24" viewBox="0 0 24 24" fill="none" xmlns="http://www.w3.org/2000/svg">
<path d="M4.75 10H19.2499C19.17 9.49996 19.0149 8.98496 18.75 8.49997H5.25001C4.985 8.98496 4.83001 9.49996 4.75 10Z" fill="#0094D3"/>
<path d="M17.5002 10.0001V16.5C18.4003 14.775 19.0903 12.335 19.0903 10.58C19.0881 10.3856 19.0714 10.1919 19.0402 10.0001H17.5002Z" fill="#FBDE13"/>
<path d="M16 18.75C16.567 17.9587 17.0687 17.1227 17.5 16.25V10.0001H16V18.75Z" fill="#E1221C"/>
<path d="M14.5 20.25C15.0199 19.75 15.485 19.43 15.9999 18.75V10.0001H14.5V20.25ZM8 18.53C8.52999 19.22 8.97 19.83 9.49999 20.325V10.0001H8V18.53Z" fill="#FBDE13"/>
<path d="M6.5 16.08C6.93303 16.9359 7.43466 17.7551 8 18.53V10.0001H6.5V16.08Z" fill="#E1221C"/>
<path d="M4.92529 11.08C5.0353 12.735 5.6553 14.49 6.50029 16.08V10.0001H4.9653C4.95543 10.0905 4.94209 10.1805 4.92529 10.27V11.08ZM11.0003 10.0001V21.5C11.3353 21.61 11.7302 22 12.0003 22C12.3202 22 12.6002 21.65 13.0003 21.5V10.0001H11.0003Z" fill="#FBDE13"/>
<path d="M13.0001 10.0001V21.5C13.48 21.265 13.9451 20.78 14.5001 20.25V10.0001H13.0001ZM11.0001 10.0001H9.50009L9.46509 20.325C10.0351 20.8549 10.5151 21.29 11.0001 21.5V10.0001Z" fill="#E1221C"/>
<path d="M12 16.5C12.6631 16.5 13.2989 16.2365 13.7678 15.7678C14.2367 15.2989 14.5 14.6629 14.5 13.9999C14.5 13.3369 14.2367 12.7011 13.7678 12.2322C13.2989 11.7633 12.6631 11.5 12 11.5C11.3369 11.5 10.7011 11.7633 10.2322 12.2322C9.76343 12.7011 9.5 13.3369 9.5 13.9999C9.5 14.6629 9.76343 15.2989 10.2322 15.7678C10.7011 16.2365 11.3369 16.5 12 16.5Z" fill="#A43316"/>
<path d="M12.0001 16.335C12.6193 16.335 13.2132 16.0889 13.6511 15.651C14.089 15.2131 14.335 14.6192 14.335 13.9999C14.335 13.3806 14.089 12.7867 13.6511 12.3488C13.2132 11.911 12.6193 11.6649 12.0001 11.6649C11.3807 11.6649 10.7869 11.911 10.3489 12.3488C9.91105 12.7867 9.66504 13.3806 9.66504 13.9999C9.66504 14.6192 9.91105 15.2131 10.3489 15.651C10.7869 16.0889 11.3807 16.335 12.0001 16.335Z" fill="#D48E09"/>
<path d="M13.7501 14.2V14.1499C13.7501 13.185 13.425 12.59 13.04 12.3999C13.0564 12.3708 13.0784 12.3452 13.105 12.3249C13.195 12.2499 13.34 12.1899 13.475 12.1899C13.4329 12.1551 13.3896 12.1217 13.345 12.09C13.2251 12.1199 13.11 12.1799 13.04 12.24C12.9985 12.2703 12.9643 12.3096 12.9401 12.3549C12.882 12.3358 12.8212 12.3257 12.76 12.3249C12.4501 12.3249 12.27 12.6449 12.18 12.8L12.145 12.8549C12.095 12.93 11.935 12.97 11.6851 12.97C11.42 12.97 11.325 12.9199 11.325 12.7499C11.325 12.48 11.695 11.8599 12.2101 11.675C12.1402 11.6684 12.0702 11.6651 12.0001 11.6649H11.975C11.515 11.9349 11.215 12.48 11.215 12.7499C11.215 12.7749 11.215 12.8 11.2251 12.8199C11.135 12.87 10.9501 12.965 10.8051 12.965C10.465 12.965 10.2051 12.7049 10.13 12.6049L10.06 12.6999C10.185 12.8499 10.465 13.075 10.8051 13.075C10.965 13.075 11.1551 12.9849 11.2601 12.9249C11.355 13.075 11.57 13.08 11.6851 13.08C11.94 13.08 12.1051 13.04 12.2 12.9599C12.319 13.0515 12.416 13.1688 12.4834 13.3029C12.551 13.4371 12.5874 13.5848 12.5901 13.735C12.5901 13.9999 12.5901 14.1849 12.515 14.23C11.5588 14.4609 10.5523 14.3548 9.66504 13.9299V14.05C10.5642 14.478 11.5845 14.5788 12.55 14.335C12.5951 14.4249 12.67 14.6599 12.67 14.8499C12.67 15.1249 12.565 15.485 12.0651 15.6449C11.8652 15.5331 11.6433 15.4666 11.415 15.45C11.2651 15.45 11.08 15.5149 10.9801 15.59C10.8751 15.4999 10.5551 15.245 10.3201 15.245C10.235 15.245 10.12 15.275 10.055 15.2899L10.12 15.39C10.1801 15.3699 10.26 15.355 10.3201 15.355C10.51 15.355 10.8001 15.5799 10.9101 15.6749L10.9051 15.705C10.9051 15.7849 10.995 15.9999 11.1251 16.1649L11.325 16.2349L11.3301 16.225C11.1778 16.0871 11.0684 15.9082 11.0151 15.7099C11.04 15.67 11.22 15.56 11.415 15.56C11.6101 15.56 11.8901 15.6749 12.0001 15.735C12.005 15.8649 12.2401 16.1349 12.4851 16.2849L12.64 16.2449H12.6301C13.76 15.6849 13.755 14.61 13.7501 14.195V14.2ZM12.51 16.1749C12.3421 16.0681 12.2045 15.9201 12.11 15.7449C12.6601 15.56 12.78 15.1599 12.78 14.8499C12.78 14.65 12.7001 14.375 12.635 14.26C12.6951 14.16 12.7001 13.98 12.7001 13.735C12.7001 13.2599 12.3851 12.965 12.265 12.87L12.2751 12.8549C12.355 12.72 12.515 12.4349 12.76 12.4349C13.1851 12.4349 13.6401 13.035 13.6401 14.1499V14.2C13.6401 14.5999 13.65 15.6549 12.51 16.1749Z" fill="#A43316"/>
<path d="M14.4199 2.46C14.1849 2.46 13.9349 3.125 13.285 3.125C12.91 3.125 12.695 2.845 12.6699 2.82499C12.6699 2.695 12.8499 2.425 12.8499 2.175C12.8499 2.11 12.825 2 12.615 2C12.41 2 12.295 2.165 12.275 2.2C12.26 2.225 12.1799 2.16 12 2.16C11.82 2.16 11.74 2.225 11.7249 2.195C11.705 2.165 11.5899 2 11.385 2C11.18 2 11.155 2.11 11.155 2.175C11.155 2.425 11.33 2.695 11.33 2.82499C11.3049 2.845 11.09 3.125 10.7149 3.125C10.065 3.125 9.81498 2.46 9.57998 2.46C8.85998 2.46 4.5 5.47999 4.5 10.26C4.5 16.0649 9.86993 22 12 22C14.13 22 19.4999 16.055 19.4999 10.26C19.4999 5.47999 15.14 2.46 14.4199 2.46ZM14.5949 2.805C14.72 2.805 16.2 4.46999 16.0999 5.79499C15.91 4.095 14.5649 2.91 14.5649 2.83C14.5649 2.81 14.58 2.805 14.5949 2.805ZM9.47498 2.805C9.48499 2.805 9.49998 2.81 9.49998 2.83C9.49998 2.91 8.15499 4.095 7.96499 5.79499C7.86498 4.46999 9.34499 2.805 9.47498 2.805ZM12 21.6349C9.86993 21.6349 4.91 15.5349 4.91 10.58C4.91 8.72998 6.75999 6.30999 7.80999 6.30999C7.90999 6.30999 8.03998 6.33999 8.03998 6.33999C8.03998 6.33999 8.45499 5.98999 9.03999 5.98999C10.14 5.98999 10.7149 7.04998 10.7149 7.43498C10.7149 7.63498 10.6449 7.59498 10.6449 7.70498C10.6449 7.76998 10.735 7.85999 10.795 7.85999C10.875 7.85999 11.1349 7.60998 11.19 7.49498C11.5549 7.49498 11.8999 7.90498 12 8.22499C12.1 7.90498 12.445 7.49498 12.8149 7.49498C12.865 7.60998 13.1249 7.85999 13.205 7.85999C13.2649 7.85999 13.355 7.76998 13.355 7.70999C13.355 7.59498 13.285 7.62999 13.285 7.43498C13.285 7.04998 13.8599 5.98999 14.96 5.98999C15.5449 5.98999 15.9599 6.33999 15.9599 6.33999C15.9599 6.33999 16.09 6.30999 16.19 6.30999C17.24 6.30999 19.0899 8.72998 19.0899 10.58C19.0899 15.5349 14.13 21.6349 12 21.6349Z" fill="black"/>
<path d="M5.74023 8.78L6.15523 9.90497H6.42022L6.83523 8.78H6.55523C6.55523 8.78 6.30523 9.59499 6.29523 9.59499C6.28523 9.59499 6.04522 8.78 6.04522 8.78H5.74023ZM7.63522 9.89995H7.92522L7.47523 8.78H7.20523L6.75523 9.90497H7.03523L7.13022 9.655H7.54523L7.63522 9.90497V9.89995ZM7.20523 9.46L7.34522 9.085L7.47523 9.46H7.20523ZM14.3002 9.89995H14.5902L14.1402 8.78H13.8702L13.4252 9.90497H13.7052L13.7952 9.655H14.2152L14.3052 9.90497L14.3002 9.89995ZM13.8702 9.46L14.0102 9.085L14.1452 9.46H13.8702ZM8.06522 8.78V9.90497H8.94522V9.66499H8.34522V8.78H8.06522ZM9.18022 8.78V9.90497H10.0552V9.67H9.43522V9.415H9.97026V9.21999H9.43522V9.005H10.0552V8.78H9.18022ZM17.1302 8.78V9.90497H17.3852V9.415H17.9201V9.21999H17.3852V9.005H18.0002V8.78H17.1252H17.1302ZM10.3652 8.78V9.90497H10.6003V9.17L11.0802 9.90497H11.3552V8.78H11.0903V9.54499L10.6353 8.78H10.3652ZM12.4102 9.18H12.7003C12.7003 8.945 12.4302 8.78 12.1702 8.78C11.8002 8.78 11.6102 9.11 11.6102 9.375C11.6102 9.69998 11.8202 9.90497 12.1502 9.90497C12.5402 9.90497 12.7003 9.68505 12.7003 9.495H12.4002C12.4002 9.55999 12.3702 9.72495 12.1753 9.72495C11.9752 9.72495 11.8752 9.55499 11.8752 9.375C11.8752 9.19 11.9752 8.98499 12.1753 8.98499C12.3503 8.98499 12.4102 9.075 12.4102 9.18499V9.18ZM16.0052 9.18H16.3002C16.3002 8.945 16.0301 8.78 15.7702 8.78C15.4001 8.78 15.2102 9.11 15.2102 9.375C15.2102 9.69998 15.4202 9.90497 15.7501 9.90497C16.1402 9.90497 16.3002 9.68505 16.3002 9.495H16.0002C16.0002 9.55999 15.9702 9.72495 15.7752 9.72495C15.5751 9.72495 15.4752 9.55499 15.4752 9.375C15.4752 9.19 15.5751 8.98499 15.7752 8.98499C15.9452 8.98499 16.0052 9.075 16.0052 9.18499V9.18ZM13.2452 8.78H12.9752V9.90497H13.2452V8.78ZM16.8402 9.63999H16.5551V9.90497H16.8402V9.63999ZM18.2752 9.63999H17.9901V9.90497H18.2752V9.63999Z" fill="#F4F2F2"/>
</svg>

<svg xmlns="http://www.w3.org/2000/svg" width="24" height="24" fill="none" viewBox="0 0 24 24">
    <path fill="#0094D3" d="M4.75 10h14.5a4.7 4.7 0 0 0-.5-1.5H5.25c-.265.485-.42 1-.5 1.5"/>
    <path fill="#FBDE13" d="M17.5 10v6.5c.9-1.725 1.59-4.165 1.59-5.92a4 4 0 0 0-.05-.58z"/>
    <path fill="#E1221C" d="M16 18.75a18 18 0 0 0 1.5-2.5V10H16z"/>
    <path fill="#FBDE13" d="M14.5 20.25c.52-.5.985-.82 1.5-1.5V10h-1.5zM8 18.53c.53.69.97 1.3 1.5 1.795V10H8z"/>
    <path fill="#E1221C" d="M6.5 16.08A18 18 0 0 0 8 18.53V10H6.5z"/>
    <path fill="#FBDE13" d="M4.925 11.08c.11 1.655.73 3.41 1.575 5V10H4.965q-.015.135-.04.27zM11 10v11.5c.335.11.73.5 1 .5.32 0 .6-.35 1-.5V10z"/>
    <path fill="#E1221C" d="M13 10v11.5c.48-.235.945-.72 1.5-1.25V10zm-2 0H9.5l-.035 10.325c.57.53 1.05.965 1.535 1.175z"/>
    <path fill="#A43316" d="M12 16.5a2.5 2.5 0 1 0 0-5.001 2.5 2.5 0 0 0 0 5.001"/>
    <path fill="#D48E09" d="M12 16.335a2.335 2.335 0 1 0 0-4.67 2.335 2.335 0 0 0 0 4.67"/>
    <path fill="#A43316" d="M13.75 14.2v-.05c0-.965-.325-1.56-.71-1.75a.3.3 0 0 1 .065-.075.62.62 0 0 1 .37-.135 2 2 0 0 0-.13-.1.8.8 0 0 0-.305.15.34.34 0 0 0-.1.115.6.6 0 0 0-.18-.03c-.31 0-.49.32-.58.475l-.035.055c-.05.075-.21.115-.46.115-.265 0-.36-.05-.36-.22 0-.27.37-.89.885-1.075q-.105-.01-.21-.01h-.025c-.46.27-.76.815-.76 1.085 0 .025 0 .05.01.07-.09.05-.275.145-.42.145-.34 0-.6-.26-.675-.36l-.07.095c.125.15.405.375.745.375.16 0 .35-.09.455-.15.095.15.31.155.425.155.255 0 .42-.04.515-.12a1 1 0 0 1 .39.775c0 .265 0 .45-.075.495a4.28 4.28 0 0 1-2.85-.3v.12c.9.428 1.92.529 2.885.285.045.09.12.325.12.515 0 .275-.105.635-.605.795a1.6 1.6 0 0 0-.65-.195.8.8 0 0 0-.435.14c-.105-.09-.425-.345-.66-.345-.085 0-.2.03-.265.045l.065.1c.06-.02.14-.035.2-.035.19 0 .48.225.59.32l-.005.03c0 .08.09.295.22.46l.2.07.005-.01a1.07 1.07 0 0 1-.315-.515c.025-.04.205-.15.4-.15s.475.115.585.175c.005.13.24.4.485.55l.155-.04h-.01c1.13-.56 1.125-1.635 1.12-2.05zm-1.24 1.975a1.2 1.2 0 0 1-.4-.43c.55-.185.67-.585.67-.895 0-.2-.08-.475-.145-.59.06-.1.065-.28.065-.525 0-.475-.315-.77-.435-.865l.01-.015c.08-.135.24-.42.485-.42.425 0 .88.6.88 1.715v.05c0 .4.01 1.455-1.13 1.975"/>
    <path fill="#000" d="M14.42 2.46c-.235 0-.485.665-1.135.665-.375 0-.59-.28-.615-.3 0-.13.18-.4.18-.65 0-.065-.025-.175-.235-.175a.42.42 0 0 0-.34.2c-.015.025-.095-.04-.275-.04s-.26.065-.275.035c-.02-.03-.135-.195-.34-.195s-.23.11-.23.175c0 .25.175.52.175.65-.025.02-.24.3-.615.3-.65 0-.9-.665-1.135-.665-.72 0-5.08 3.02-5.08 7.8C4.5 16.065 9.87 22 12 22s7.5-5.945 7.5-11.74c0-4.78-4.36-7.8-5.08-7.8m.175.345c.125 0 1.605 1.665 1.505 2.99-.19-1.7-1.535-2.885-1.535-2.965 0-.02.015-.025.03-.025m-5.12 0c.01 0 .025.005.025.025 0 .08-1.345 1.265-1.535 2.965-.1-1.325 1.38-2.99 1.51-2.99M12 21.635c-2.13 0-7.09-6.1-7.09-11.055 0-1.85 1.85-4.27 2.9-4.27.1 0 .23.03.23.03s.415-.35 1-.35c1.1 0 1.675 1.06 1.675 1.445 0 .2-.07.16-.07.27 0 .065.09.155.15.155.08 0 .34-.25.395-.365.365 0 .71.41.81.73.1-.32.445-.73.815-.73.05.115.31.365.39.365.06 0 .15-.09.15-.15 0-.115-.07-.08-.07-.275 0-.385.575-1.445 1.675-1.445.585 0 1 .35 1 .35s.13-.03.23-.03c1.05 0 2.9 2.42 2.9 4.27 0 4.955-4.96 11.055-7.09 11.055"/>
    <path fill="#F4F2F2" d="m5.74 8.78.415 1.125h.265l.415-1.125h-.28s-.25.815-.26.815-.25-.815-.25-.815zM7.635 9.9h.29l-.45-1.12h-.27l-.45 1.125h.28l.095-.25h.415l.09.25zm-.43-.44.14-.375.13.375zm7.095.44h.29l-.45-1.12h-.27l-.445 1.125h.28l.09-.25h.42l.09.25zm-.43-.44.14-.375.135.375zm-5.805-.68v1.125h.88v-.24h-.6V8.78zm1.115 0v1.125h.875V9.67h-.62v-.255h.535V9.22h-.535v-.215h.62V8.78zm7.95 0v1.125h.255v-.49h.535V9.22h-.535v-.215H18V8.78h-.875zm-6.765 0v1.125h.235V9.17l.48.735h.275V8.78h-.265v.765l-.455-.765zm2.045.4h.29c0-.235-.27-.4-.53-.4-.37 0-.56.33-.56.595 0 .325.21.53.54.53.39 0 .55-.22.55-.41h-.3c0 .065-.03.23-.225.23-.2 0-.3-.17-.3-.35 0-.185.1-.39.3-.39.175 0 .235.09.235.2zm3.595 0h.295c0-.235-.27-.4-.53-.4-.37 0-.56.33-.56.595 0 .325.21.53.54.53.39 0 .55-.22.55-.41H16c0 .065-.03.23-.225.23-.2 0-.3-.17-.3-.35 0-.185.1-.39.3-.39.17 0 .23.09.23.2zm-2.76-.4h-.27v1.125h.27zm3.595.86h-.285v.265h.285zm1.435 0h-.285v.265h.285z"/>
</svg>
